images/01/Nike-Logo.svg

<svg fill="none" height="49" viewBox="0 0 137 49" width="137" xmlns="http://www.w3.org/2000/svg"><path d="m16.2551 48.0432c-4.0004-.1579-7.27333-1.2454-9.83249-3.2653-.48841-.3858-1.65223-1.5428-2.04268-2.0308-1.03777-1.2964-1.74332-2.5582-2.21391-3.9581-1.448094-4.3092-.70281-9.964 2.13172-16.17 2.42695-5.3131 6.17186-10.5826 12.70536-17.88087.9624-1.07391 3.8285-4.214692 3.847-4.214692.0068 0-.1494.268824-.346.596172-1.6988 2.82703-3.1523 6.15698-3.9442 9.03979-1.272 4.6258-1.1186 8.5954.4494 11.6736 1.0816 2.1206 2.9359 3.9574 5.021 4.9728 3.6504 1.777 8.9948 1.9239 15.5214.4301.4494-.1034 22.716-5.9759 49.4817-13.0503 26.7656-7.07506 48.6686-12.8591 48.6716-12.85434.008.00613-62.1839 26.44574-94.4686 40.16234-5.1129 2.1716-6.4801 2.7202-8.8838 3.5586-6.1445 2.1437-11.6484 3.1666-16.0975 2.991z" fill="#555"/></svg>

<svg xmlns="http://www.w3.org/2000/svg" width="137" height="49" viewBox="0 0 137 49" fill="none"><path d="M16.2551 48.0432C12.2547 47.8853 8.98177 46.7978 6.42261 44.7779C5.9342 44.3921 4.77038 43.2351 4.37993 42.7471C3.34216 41.4507 2.63661 40.1889 2.16602 38.789C0.717926 34.4798 1.46321 28.825 4.29774 22.619C6.72469 17.3059 10.4696 12.0364 17.0031 4.73813C17.9655 3.66422 20.8316 0.523438 20.8501 0.523438C20.8569 0.523438 20.7007 0.792262 20.5041 1.11961C18.8053 3.94664 17.3518 7.27659 16.5599 10.1594C15.2879 14.7852 15.4413 18.7548 17.0093 21.833C18.0909 23.9536 19.9452 25.7904 22.0303 26.8058C25.6807 28.5828 31.0251 28.7297 37.5517 27.2359C38.0011 27.1325 60.2677 21.26 87.0334 14.1856C113.799 7.11054 135.702 1.3265 135.705 1.33126C135.713 1.33739 73.5211 27.777 41.2364 41.4936C36.1235 43.6652 34.7563 44.2138 32.3526 45.0522C26.2081 47.1959 20.7042 48.2188 16.2551 48.0432Z" fill="#555555"/></svg>
